X:170 
T:Paddy Taylor's (reel) 
B:CRE3.154 (Ril PhÃÂÃÂÃÂÃÂ¡draig TÃÂÃÂÃÂÃÂ¡illiÃÂÃÂÃÂÃÂºr)
F:file ID: cre.3/170paddy_t
N:The first two parts of this tune are usually played as D modal but the 
CRE version has no C naturals.
R:reel
L:1/8
Q:180
M:C
K:G
"D modal"
DE|:FEDF ABAF|GEE2 cEGE|FADF A2dA|GEcE EDDE:|
FEFG A2dA|G2dG G2dG|F3G A2dA |1 GEcE EDDE:|\
[2 GEcE EDD||
K:D
B| Addc d3A|Be~e2 Bege|fdec dcAG|EDDE DEFG|
Addc dfed|Bdef g2eg|afge fded|cAGE EDDE||

%%%

